src/assets/hide.svg

<svg xmlns="http://www.w3.org/2000/svg" width="24" height="24" viewBox="0 0 24 24">
  <path fill="#929fad" d="M8.18980233,5.77442731 C8.1903626,5.77419477 8.19092291,5.77396227 8.19148324,5.77372981 L9.88553874,7.46778531 C9.88490968,7.46807929 9.88428069,7.4683734 9.88365177,7.46866764 L11.9159336,9.50141843 C11.9169786,9.50138353 11.9180237,9.50134925 11.919069,9.50131561 L14.4996357,12.0818823 C14.4995959,12.0831199 14.4995551,12.0843574 14.4995135,12.0855946 L16.5308433,14.1173932 C16.5313008,14.116416 16.5317579,14.1154387 16.5322147,14.1144613 L18.8162973,16.3985438 C18.8154146,16.3992711 18.8145317,16.3999982 18.8136487,16.4007253 L20.1996082,17.7870047 C20.5901006,18.1775872 20.5900641,18.8107623 20.1995266,19.2012998 C19.8090474,19.591779 19.1759554,19.591779 18.7854762,19.2012998 C18.785449,19.2012726 18.7854218,19.2012454 18.7853946,19.2012182 L17.1468827,17.5623282 C15.688185,18.4086922 13.9496832,19 12,19 C6,19 2,13.4 2,12 C2,11.1095399 3.61820231,8.51996744 6.33998388,6.75293546 L4.79872078,5.21131668 C4.40822835,4.82073414 4.40826488,4.18755903 4.79880237,3.79702154 C5.1892816,3.4065423 5.82237354,3.4065423 6.21285278,3.79702154 C6.21287997,3.79704873 6.21290716,3.79707593 6.21293434,3.79710312 L8.18980233,5.77442731 Z M15.3219644,15.7369887 L13.5487546,13.9633698 C13.1230468,14.2994325 12.5854216,14.5 12.0009513,14.5 C10.6202394,14.5 9.50095131,13.3807119 9.50095131,12 C9.50095131,11.4153225 9.70166109,10.8775233 10.037939,10.451744 L8.2637782,8.67717373 C7.47762279,9.56050093 7,10.7244731 7,12 C7,14.7614237 9.23857625,17 12,17 C13.2751121,17 14.438742,16.5226878 15.3219644,15.7369887 Z M10.3830045,5.13682397 C10.903717,5.04821796 11.4432482,5 12,5 C18,5 22,10.6 22,12 C22,12.5517499 21.3787185,13.7558454 20.2585811,15.0124005 L16.9937372,11.7475566 C16.8664133,9.18704978 14.8129502,7.13358666 12.2524427,7.00626213 L10.3830045,5.13682397 Z"/>
</svg>

<svg xmlns="http://www.w3.org/2000/svg" width="24" height="24"><path fill="#929fad" d="M8.19 5.77l1.7 1.7 2.03 2.03 2.58 2.58 2.03 2.04 2.29 2.28 1.38 1.39a1 1 0 0 1-1.41 1.41l-1.64-1.64C15.69 18.41 13.95 19 12 19c-6 0-10-5.6-10-7 0-.89 1.62-3.48 4.34-5.25L4.8 5.21A1 1 0 0 1 6.2 3.8L8.2 5.77zm7.13 9.97l-1.77-1.78a2.5 2.5 0 0 1-3.51-3.51L8.26 8.68a5 5 0 0 0 7.06 7.06zm-4.94-10.6A9.63 9.63 0 0 1 12 5c6 0 10 5.6 10 7 0 .55-.62 1.76-1.74 3.01l-3.27-3.26A5 5 0 0 0 12.25 7l-1.87-1.87z"/></svg>
